X:48
T:Happy Night,The. WCl.48
M:6/8
L:1/8
Q:3/8=120
S:William Clarke MS,Lincoln,1770.
R:.Jig
O:Lincoln
A:England
N:Bars 8 and 16 as given (?a3A3 and d3D3)
Z:vmp.Barry Callaghan
K:D
d3 dAd|e3 eAe|fga afd|cde ecA|!
d3 dAd|e3 eAe|f^ga Bag|”sic”a2A2:|!
|:a3 aAa|aba agf|g3 gGg|gag gfe|!
((3f/g/a/) a2 ((3e/f/g/) g2|((3f/g/a/) a2 ((3e/f/g/) g2|\
faf gec|”sic”d2D2:|

